X: 39216
T: Ta Cashen Ersooyl Dys Yn 'Aarkey
R: slip jig
M: 9/8
K: Bminor
F|BBc dcB cAF|BBd cAc e2 f|BBc dcB cAe|fef ddc B2||
A|dde fed cBA|dAd fdf a2 e|dde fed cBA|FBd cBA B2||

